svg/home.svg

<svg xmlns="http://www.w3.org/2000/svg" viewBox="0 0 32 32" enable-background="new 0 0 32 32"><path d="M 16 2.59375 L 15.28125 3.28125 L 2.28125 16.28125 L 3.71875 17.71875 L 5 16.4375 L 5 27 L 5 28 L 6 28 L 13 28 L 14 28 L 14 27 L 14 18 L 18 18 L 18 27 L 18 28 L 19 28 L 26 28 L 27 28 L 27 27 L 27 16.4375 L 28.28125 17.71875 L 29.71875 16.28125 L 16.71875 3.28125 L 16 2.59375 z M 16 5.4375 L 25 14.4375 L 25 26 L 20 26 L 20 17 L 20 16 L 19 16 L 13 16 L 12 16 L 12 17 L 12 26 L 7 26 L 7 14.4375 L 16 5.4375 z" color="#000" overflow="visible" enable-background="accumulate"/></svg>

<svg xmlns="http://www.w3.org/2000/svg" viewBox="0 0 32 32"><path d="M16 2.594l-.72.687-13 13 1.44 1.44L5 16.437V28h9V18h4v10h9V16.437l1.28 1.282 1.44-1.44-13-13-.72-.686zm0 2.844l9 9V26h-5V16h-8v10H7V14.437l9-9z"/></svg>
